svg/color/ada.svg

<?xml version="1.0" encoding="UTF-8"?>
<svg width="32px" height="32px" viewBox="0 0 32 32" version="1.1" xmlns="http://www.w3.org/2000/svg" xmlns:xlink="http://www.w3.org/1999/xlink">
    <!-- Generator: Sketch 52.1 (67048) - http://www.bohemiancoding.com/sketch -->
    <title>svg/color/ada</title>
    <desc>Created with Sketch.</desc>
    <defs>
        <path d="M15.724719,6.05915178 C16.2039693,5.81328915 16.7889868,6.38365151 16.5343541,6.85471695 C16.3864781,7.2387083 15.8257584,7.34081755 15.5393516,7.04811879 C15.2359034,6.76721019 15.3348539,6.21199115 15.724719,6.05915178 Z M10.5699463,6.60582566 C10.8610808,6.48792409 11.2296165,6.75033621 11.1999313,7.06250495 C11.2308259,7.40139083 10.8096265,7.65082296 10.5128849,7.48976292 C10.1197215,7.33995221 10.164689,6.71204524 10.5699463,6.60582566 Z M21.1275275,7.49928158 C20.672575,7.44519829 20.600561,6.74146655 21.038582,6.59976833 C21.3783122,6.4367613 21.6900063,6.74244005 21.7397015,7.05925995 C21.6684571,7.32978456 21.4382322,7.57748602 21.1275275,7.49928158 Z M11.7428399,8.76428969 C12.2295665,8.46142328 12.9240893,8.9124779 12.8492167,9.46867044 C12.8239293,10.0302713 12.0657484,10.3556364 11.6379523,9.97597168 C11.2243391,9.67775643 11.2870078,8.99360284 11.7428399,8.76428969 Z M19.1730348,9.08565259 C19.3901762,8.53508472 20.2700663,8.51842707 20.5172227,9.05439245 C20.7615206,9.47148277 20.4610408,9.98797817 20.0257684,10.1297846 C19.4492167,10.2356796 18.9015805,9.62248331 19.1730348,9.08565259 Z M15.1039693,10.0985244 C15.0992417,9.62529564 15.5373726,9.2726726 15.994524,9.24043896 C16.2977524,9.30025508 16.6282472,9.42735081 16.7583122,9.72837839 C17.0007409,10.1436299 16.7854686,10.7153984 16.3474476,10.9059879 C16.1471277,11.016426 15.9103062,10.9749982 15.6921752,10.9621264 C15.358712,10.8010663 15.0779124,10.4852199 15.1039693,10.0985244 Z M7.43805229,10.7880863 C7.88266998,10.5191842 8.48253005,11.009936 8.31420421,11.4851118 C8.22152055,11.8961448 7.65992135,12.0633703 7.33888187,11.8009582 C6.99618322,11.5550955 7.05049606,10.9639652 7.43805229,10.7880863 Z M23.8995715,10.787221 C24.2767929,10.4990652 24.8993017,10.8296223 24.8543341,11.2981999 C24.8796215,11.7254579 24.3414406,12.0476861 23.9669678,11.8276753 C23.554564,11.6453065 23.5124551,11.0210771 23.8995715,10.787221 Z M17.2597714,11.6379511 C17.8822802,11.4179403 18.6216605,11.6812178 18.9764531,12.2272426 C19.4444891,12.8947386 19.1954636,13.9112881 18.4691667,14.2943059 C17.716593,14.7473075 16.6176925,14.3633162 16.3397514,13.5364909 C16.0242092,12.796307 16.4838894,11.8699684 17.2597714,11.6379511 Z M13.6073976,11.7107472 C14.2973027,11.3903578 15.2257884,11.6591518 15.5590318,12.353473 C15.9512057,13.0292978 15.6479773,13.970347 14.9468579,14.3192924 C14.2448589,14.7115044 13.2544741,14.4141545 12.9147439,13.6885731 C12.5337844,12.9868965 12.8720853,12.0338408 13.6073976,11.7107472 Z M9.95029616,12.9408175 C10.0027399,12.5035001 10.4220703,12.2189138 10.8451387,12.1894925 C11.3009708,12.2435758 11.6651088,12.5918722 11.714694,13.0457391 C11.6847889,13.4950631 11.3318654,13.9342194 10.8478874,13.9315152 C10.3154236,13.9766207 9.84859701,13.4554741 9.95029616,12.9408175 Z M20.7521752,12.2845709 C21.2988219,11.9715369 22.0578824,12.4272426 22.0335845,13.0450901 C22.0710758,13.6997142 21.2309858,14.1610447 20.686648,13.7770534 C20.1212007,13.457313 20.1652887,12.5568262 20.7521752,12.2845709 Z M12.1210508,14.591764 C12.7603811,14.4186975 13.4914056,14.7151821 13.8049688,15.2933324 C14.1484371,15.8752686 14.0080373,16.6837056 13.474584,17.1105309 C12.7903961,17.7365991 11.528557,17.4852199 11.1644191,16.6308121 C10.7459683,15.847578 11.2542442,14.7979295 12.1210508,14.591764 Z M19.048577,14.588519 C19.6700963,14.4136137 20.4002412,14.6493086 20.7343641,15.2063665 C21.1761232,15.8434676 20.9652487,16.793711 20.3075575,17.2044195 C19.618642,17.6813259 18.5515156,17.4309203 18.1724251,16.6852199 C17.7128549,15.9138841 18.1752837,14.8237813 19.048577,14.588519 Z M8.00899681,15.3153984 C8.56125069,15.1098819 9.1734246,15.7094492 8.94968647,16.2481188 C8.8130248,16.7388705 8.11003629,16.9202659 7.74688787,16.5584487 C7.32195034,16.2186975 7.47928167,15.4627213 8.00899681,15.3153984 Z M22.9780123,16.0971183 C22.9620703,15.646929 23.2968529,15.248227 23.7660983,15.2233486 C24.1443092,15.2822994 24.5120753,15.5824617 24.4821702,15.9875455 C24.5168029,16.5225374 23.8615305,16.8861934 23.3982222,16.6348143 C23.1810808,16.5262151 23.0697065,16.3070696 22.9780123,16.0971183 Z M5.29357452,15.5796493 C5.6258284,15.4369776 6.03680291,15.7202659 5.96094084,16.0832729 C5.94312975,16.4943059 5.32633814,16.6523373 5.09974144,16.3089084 C4.89953155,16.0704011 5.01937163,15.7026347 5.29357452,15.5796493 Z M26.2428299,15.5714287 C26.4767929,15.4075563 26.8521452,15.5253497 26.9448289,15.7942518 C27.1020503,16.0879241 26.8137744,16.4903038 26.4777824,16.4406553 C26.0061183,16.4829484 25.8535146,15.7757554 26.2428299,15.5714287 Z M13.9256885,17.5444952 C14.7999713,17.3208067 15.7397814,18.0380593 15.7452787,18.9237272 C15.8023401,19.8186975 14.876713,20.6123157 13.9817604,20.4056093 C13.2899863,20.2960366 12.7471877,19.640439 12.7696165,18.9527159 C12.7677474,18.2949549 13.2722852,17.6835974 13.9256885,17.5444952 Z M17.3880773,17.5426564 C18.2754436,17.2986326 19.2432897,18.028757 19.2292167,18.9348684 C19.2760533,19.8132892 18.3793416,20.5801902 17.5030798,20.4059338 C16.6784921,20.3010122 16.0700563,19.4097197 16.3002812,18.6224833 C16.4164931,18.0978754 16.8619903,17.6712664 17.3880773,17.5426564 Z M10.7123251,18.0878159 C11.3263681,17.9847332 11.9020403,18.6587191 11.6530148,19.2323265 C11.4713856,19.8435758 10.5671977,20.0093952 10.1674376,19.5100982 C9.69852205,19.0305958 10.048587,18.1540139 10.7123251,18.0878159 Z M20.8662982,18.1147494 C21.4138244,17.8891139 22.0859184,18.3550955 22.0438094,18.9397359 C22.0657984,19.583327 21.2360433,20.0271345 20.700611,19.651472 C20.0941542,19.3142086 20.204539,18.3216721 20.8662982,18.1147494 Z M23.7044191,20.9153984 C23.4900263,20.5222129 23.8794516,20.0010663 24.3231897,20.0738624 C24.5440693,20.0701848 24.698542,20.2414125 24.8399313,20.3850577 C24.8689568,20.6180485 24.9176625,20.8960366 24.7210808,21.0755931 C24.4541342,21.407989 23.8494366,21.3131269 23.7044191,20.9153984 Z M7.43618322,20.183327 C7.85089586,19.9117207 8.44767747,20.3168046 8.35444409,20.7938192 C8.30485888,21.2156688 7.76469896,21.4567721 7.40891685,21.2173995 C7.02707777,21.0000928 7.04115074,20.38138 7.43618322,20.183327 Z M15.6292867,21.0663989 C16.1721952,20.830704 16.8638594,21.2957121 16.8124051,21.8840301 C16.852645,22.5341112 15.9971627,22.9843005 15.4663481,22.5939273 C14.876713,22.2587191 14.9750038,21.2725644 15.6292867,21.0663989 Z M11.834534,21.9373562 C12.2969628,21.6979836 12.9174926,22.1113962 12.8753836,22.6205363 C12.8894566,23.0386001 12.4747439,23.3949008 12.0554136,23.3331377 C11.7080973,23.3257824 11.4816105,23.0194546 11.3702362,22.7281621 C11.3759533,22.4106932 11.5087669,22.0570966 11.834534,21.9373562 Z M19.5212307,21.9447115 C19.9967429,21.6555823 20.672575,22.0708338 20.6276075,22.6153443 C20.6398114,23.1844087 19.8760233,23.54893 19.4332747,23.1751064 C19.004599,22.8820831 19.0569328,22.1777024 19.5212307,21.9447115 Z M20.8579423,25.1958743 C20.6464081,24.8810014 20.8954336,24.5016612 21.2389019,24.4298386 C21.5150838,24.4851118 21.8070978,24.6894384 21.7490468,25.0044195 C21.7088069,25.430704 21.0750838,25.5614774 20.8579423,25.1958743 Z M10.2470378,24.9224292 C10.3312557,24.6728889 10.5353137,24.424863 10.8339243,24.4897629 C11.2691967,24.5201577 11.3983821,25.1655877 11.0174226,25.364506 C10.6748339,25.591764 10.2773826,25.2805688 10.2470378,24.9224292 Z M15.3661882,25.2087462 C15.4495265,24.8395736 15.9352637,24.6600171 16.2554236,24.8561231 C16.4669578,24.9454687 16.5287469,25.1783513 16.5830598,25.3762962 C16.5540343,25.4793789 16.5280873,25.5825698 16.50258,25.6856526 C16.3715255,25.838492 16.2030898,25.9913313 15.9849588,25.9858148 C15.5795915,26.0325428 15.2139144,25.5817045 15.3661882,25.2087462 Z" id="path-1"></path>
        <filter x="-7.5%" y="-6.0%" width="115.5%" height="117.2%" filterUnits="objectBoundingBox" id="filter-2">
            <feOffset dx="0" dy="0.5" in="SourceAlpha" result="shadowOffsetOuter1"></feOffset>
            <feGaussianBlur stdDeviation="0.5" in="shadowOffsetOuter1" result="shadowBlurOuter1"></feGaussianBlur>
            <feColorMatrix values="0 0 0 0 0   0 0 0 0 0   0 0 0 0 0  0 0 0 0.204257246 0" type="matrix" in="shadowBlurOuter1"></feColorMatrix>
        </filter>
    </defs>
    <g id="color/ada" stroke="none" stroke-width="1" fill="none" fill-rule="evenodd">
        <g id="Group" fill="#0D1E30" fill-rule="nonzero">
            <circle id="Oval" cx="16" cy="16" r="16"></circle>
        </g>
        <g id="Shape" fill-rule="nonzero">
            <use fill="black" fill-opacity="1" filter="url(#filter-2)" xlink:href="#path-1"></use>
            <use fill="#FFFFFF" xlink:href="#path-1"></use>
        </g>
    </g>
</svg>

<svg xmlns="http://www.w3.org/2000/svg" width="32" height="32"><g fill="none" fill-rule="evenodd"><circle cx="16" cy="16" r="16" fill="#3CC8C8"/><path fill="#FFF" fill-rule="nonzero" d="M15.725 6.06c.479-.247 1.064.324.81.795-.149.384-.71.486-.996.193-.303-.28-.204-.836.186-.989zm-5.155.546c.291-.118.66.144.63.457.03.338-.39.588-.687.427-.393-.15-.348-.778.057-.884zm10.558.893c-.455-.054-.527-.758-.09-.9.34-.162.652.143.702.46-.072.27-.302.518-.612.44zm-9.385 1.265c.487-.303 1.181.148 1.106.705-.025.561-.783.887-1.211.507-.414-.298-.351-.982.105-1.212zm7.43.322c.217-.55 1.097-.568 1.344-.032.245.417-.056.934-.491 1.076-.577.106-1.124-.508-.853-1.044zm-4.069 1.013c-.005-.474.433-.826.89-.859.304.06.634.187.764.488.243.416.027.987-.41 1.178-.2.11-.438.069-.656.056-.333-.16-.614-.477-.588-.863zm-7.666.69c.445-.27 1.045.22.876.696-.092.411-.654.578-.975.316-.343-.246-.289-.837.1-1.013zm16.462-.002c.377-.288 1 .043.954.511.026.427-.513.75-.887.53-.412-.183-.455-.807-.067-1.04zm-6.64.851c.622-.22 1.362.043 1.716.59.468.667.22 1.683-.507 2.066-.752.453-1.851.07-2.13-.758-.315-.74.145-1.666.92-1.898zm-3.653.073c.69-.32 1.619-.052 1.952.642.392.676.089 1.617-.612 1.966-.702.393-1.693.095-2.032-.63-.381-.702-.043-1.655.692-1.978zM9.95 12.94c.053-.437.472-.722.895-.752a.98.98 0 0 1 .87.857c-.03.45-.383.888-.867.886-.533.045-1-.477-.898-.991zm10.802-.656c.547-.313 1.306.142 1.282.76.037.655-.803 1.116-1.347.732-.566-.32-.522-1.22.065-1.492zm-8.63 2.307c.638-.173 1.37.123 1.683.701.343.582.203 1.39-.33 1.818-.685.626-1.946.374-2.31-.48-.419-.783.09-1.833.956-2.04zm6.927-.003c.621-.175 1.351.06 1.685.617.442.637.231 1.588-.426 1.998-.69.477-1.756.227-2.136-.519-.46-.771.003-1.861.877-2.096zm-11.04.726c.552-.205 1.164.394.94.933-.136.49-.839.672-1.202.31-.425-.34-.268-1.095.262-1.243zm14.969.782a.836.836 0 0 1 .788-.874c.378.06.746.36.716.765.035.535-.62.898-1.084.647-.217-.109-.328-.328-.42-.538zM5.294 15.58c.332-.143.743.14.667.503-.018.411-.635.57-.861.226-.2-.239-.08-.606.194-.73zm20.949-.009c.234-.163.61-.046.702.223.157.294-.131.696-.467.647-.472.042-.624-.665-.235-.87zm-12.317 1.973c.874-.223 1.814.494 1.82 1.38.056.895-.87 1.688-1.764 1.482-.692-.11-1.235-.766-1.212-1.453-.002-.658.502-1.27 1.156-1.409zm3.462-.001c.887-.244 1.855.486 1.841 1.392.047.878-.85 1.645-1.726 1.47-.825-.104-1.433-.995-1.203-1.783.116-.524.562-.95 1.088-1.08zm-6.676.545c.614-.103 1.19.57.941 1.144-.182.612-1.086.777-1.486.278-.468-.48-.118-1.356.545-1.422zm10.154.027c.548-.226 1.22.24 1.178.825.022.643-.808 1.087-1.343.711-.607-.337-.496-1.33.165-1.536zm2.838 2.8c-.214-.393.175-.914.62-.841.22-.004.375.167.516.311.029.233.078.511-.119.69-.267.333-.872.238-1.017-.16zm-16.268-.732c.415-.271 1.012.134.918.61-.05.423-.59.664-.945.424-.382-.217-.368-.836.027-1.034zm8.193.883c.543-.235 1.235.23 1.183.818.04.65-.815 1.1-1.346.71-.59-.335-.491-1.321.163-1.528zm-3.794.871c.462-.239 1.082.174 1.04.684.014.418-.4.774-.82.712-.347-.007-.573-.314-.685-.605.006-.317.139-.67.465-.79zm7.686.008c.476-.29 1.152.126 1.107.67.012.57-.752.934-1.195.56-.428-.293-.376-.997.088-1.23zm1.337 3.25c-.212-.314.037-.693.38-.765.277.055.57.26.511.574-.04.427-.674.557-.891.192zm-10.611-.273c.084-.25.288-.497.587-.432.435.03.564.676.183.875-.342.227-.74-.084-.77-.443zm5.12.287c.083-.37.568-.549.888-.353.212.09.274.322.328.52a8.822 8.822 0 0 0-.08.31c-.131.152-.3.305-.518.3-.405.047-.771-.404-.619-.777z"/></g></svg>
